X:850
T:Redhaired Lass
R:reel
H:Also played in A, #576
Z:id:hn-reel-102
M:C|
L:1/8
K:G
DGGF G2BG|~G2BG AGEG|DGGF GABd|[1 gedB cABG:|[2 gedB cABc||
d2gd edgd|~d2gd cABc|d2gd edef|gedB cABc|
d2gd edgd|~d2gd BGAB|~c3A ~B3A|GABd e2dB||
